X: 3
T: The Corner House
R: reel
M: 4/4
L: 1/8
K: Ador
G|:EAAG ABcd | ef (3.g.f.e dcBA | ~G3F GABc | dedc BGAG |
EAAG ABcd | ef (3.g.f.e d2ef | gfge d2ef |1 gfed BAAG :|2 gfed BAAg |
|:a2ag a2ag | a2ag agef | g2gf g2gf | g2gf gf (3efg |
a2ag a2ag | a2ag agef | gfge d2ef |1 gfed BAAg :|2 gfed BAA |


Tune 479	Setting 479

